X:568
T: LANGE LANGE REIGE
N: E1871
O: Europa, Mitteleuropa, Deutschland, Sachsen; Thueringen
R: Kinder - Lied, Tanz, Ringelreihen
M: 2/4
L: 1/8
K: C
 | CCCE | C2G,2 |
CCCE | C2G,2 |
CCCE | CCG,2 |
CCCE | CCG,2 |
CCCE | C2G,2

@@@ Tune index: 5252
